svgs/duotone/file-video.svg

<svg xmlns="http://www.w3.org/2000/svg" viewBox="0 0 384 512"><!-- Font Awesome Pro 6.0.0-alpha2 by @fontawesome - https://fontawesome.com License - https://fontawesome.com/license (Commercial License) --><defs><style>.fa-secondary{opacity:.4}</style></defs><path d="M256 128V0H48C21.49 0 0 21.492 0 48V464C0 490.508 21.49 512 48 512H336C362.51 512 384 490.508 384 464V128H256ZM224 384C224 401.672 209.674 416 192 416H96C78.326 416 64 401.672 64 384V288C64 270.328 78.326 256 96 256H192C209.674 256 224 270.328 224 288V384ZM320 387.133C320 399.699 306.178 407.359 295.52 400.699L256 376V296L295.52 271.297C306.178 264.641 320 272.301 320 284.867V387.133Z" class="fa-secondary"/><path d="M256 0V128H384L256 0ZM192 256H96C78.326 256 64 270.328 64 288V384C64 401.672 78.326 416 96 416H192C209.674 416 224 401.672 224 384V288C224 270.328 209.674 256 192 256ZM295.52 271.297L256 296V376L295.52 400.699C306.178 407.359 320 399.699 320 387.133V284.867C320 272.301 306.178 264.641 295.52 271.297Z" class="fa-primary"/></svg>

<svg xmlns="http://www.w3.org/2000/svg" viewBox="0 0 384 512"><!--! Font Awesome Pro 6.3.0 by @fontawesome - https://fontawesome.com License - https://fontawesome.com/license (Commercial License) Copyright 2023 Fonticons, Inc. --><defs><style>.fa-secondary{opacity:.4}</style></defs><path class="fa-primary" d="M256 0v128h128L256 0zM192 256H96C78.33 256 64 270.3 64 288v96c0 17.67 14.33 32 32 32h96c17.67 0 32-14.33 32-32V288C224 270.3 209.7 256 192 256zM295.5 271.3L256 296v80l39.52 24.7C306.2 407.4 320 399.7 320 387.1V284.9C320 272.3 306.2 264.6 295.5 271.3z"/><path class="fa-secondary" d="M256 128V0H48C21.49 0 0 21.49 0 48v416C0 490.5 21.49 512 48 512h288c26.51 0 48-21.49 48-48V128H256zM224 384c0 17.67-14.33 32-32 32H96c-17.67 0-32-14.33-32-32V288c0-17.67 14.33-32 32-32h96c17.67 0 32 14.33 32 32V384zM320 387.1c0 12.57-13.82 20.23-24.48 13.57L256 376v-80l39.52-24.7C306.2 264.6 320 272.3 320 284.9V387.1z"/></svg>
